**kern	**silbe	**kern	**silbe
*ICvox	*	*ICvox	*
=1	=1	=1	=1
*G-:	*	*G-:	*
*M4/4	*	*M4/4	*
*clefG2	*	*clefC3	*
1r	.	1r	.
=2	=2	=2	=2
1r	.	1r	.
=3	=3	=3	=3
1r	.	1r	.
=4	=4	=4	=4
1r	.	1r	.
=5	=5	=5	=5
8a-q	_	.	.
4b-	Hea-	4d- g-	Hea-
4a-	-ven's	4d- g-	-ven's
4b-	just	4d- g-	just
4a-	a	4c- e-	a
=6	=6	=6	=6
8a-q	_	.	.
4b-	sin	4d- g-	sin
8a-	a-	8c- e-	a-
[8g-	-way,	[8B- [d-	-way,
8g-]	_	8B-] d-]	_
8b-	whoa	8B- e-	whoa
8a-	_	8c- e-	_
8g-	_	8c- e-	_
=7	=7	=7	=7
4a-	whoa,	4c- e-	whoa,
4g-	_	4c- e-	_
4a-	just	4c- e-	just
4g-	a	4c- e-	a
=8	=8	=8	=8
8g-q	_	.	.
4a-	sin	4c- f-	sin
8g-	a-	8c- e-	a-
[8a-	-way,	[8c- [e-	-way
8a-]	_	4c-] e-]	_
8g-	_	.	.
4e-	_	4r	.
=9	=9	=9	=9
8r	.	8r	.
8a-	I	8d- g-	I
4b-	can't	4d- g-	can't
4b-	wait	4d- g-	wait
4a-	a-	4c- e-	a-
=10	=10	=10	=10
4b-	-no-	4d- g-	-no-
8a-	-ther	8c- e-	-ther
[8g-	day,	[8B- [d-	day,
8g-]	_	8B-] d-]	_
8a-	I	8c- e-	I
4b-	_	4d- g-	_
=11	=11	=11	=11
4a-	think	4c e-	think
4a-	I'm	4c e-	I'm
4a-	gi-	4c e-	gi-
8g-	-vin'	8c e-	-vin'
8a-q	_	8cq 8e-q	_
[8b-	in	[8d- [f	in
=12	=12	=12	=12
8b-]	_	8d-] f]	_
8r	.	8r	.
4r	.	4r	.
2r	.	2r	.
=13	=13	=13	=13
8a-q	_	.	.
8b-	How	8d- g-	How
4a-	I'd	4d- g-	I'd
4b-	love	4d- g-	love
8a-	to	8c- e-	to
[8b-	hold	[8d- [g-	hold
=14	=14	=14	=14
4b-]	_	4d-] g-]	_
8a-	you	8c- e-	you
[8g-	tight,	[8B- [d-	tight,
8g-]	_	8B-] d-]	_
8b-	whoa	8B- e-	whoa
8a-	_	8c- e-	_
8g-	_	8c- e-	_
=15	=15	=15	=15
4a-	whoa,	4c- e-	whoa,
4g-	_	4c- e-	_
4a-	be	4c- e-	be
8g-	with	8c- e-	with
[8a-	you	[8c- [f-	you
=16	=16	=16	=16
4a-]	_	4c-] f-]	_
8g-	to-	8c- e-	to-
[8a-	-night	[8c- [e-	-night
8a-]	_	4c-] e-]	_
8g-	_	.	.
4e-	_	4r	.
=17	=17	=17	=17
8r	.	8r	.
8a-	But	8d- g-	But
4b-	that	4d- g-	that
4b-	still	4d- g-	still
4a-	won't	4c- e-	won't
=18	=18	=18	=18
4b-	make	4d- g-	make
8a-	it	8c- e-	it
[8g-	right,	[8B- [d-	right,
8g-]	_	8B-] d-]	_
8a-	cuz	8c- e-	cuz
4b-	_	4d- g-	_
=19	=19	=19	=19
4a-	I	4d- f	I
8g-	be-	8d- e-	be-
[8b-	-long	[8d- [g-	-long
4b-]	_	4d-] g-]	_
8dd-	to	8d- f	to
8a-q	_	8fq	_
[8b-	him	[8d- [g-	him
=20	=20	=20	=20
8b-]	_	8d-] g-]	_
8a-	_	8c- e-	_
2.g-	_	2.B- d-	_
=21	=21	=21	=21
4r	.	1r	.
8r	.	.	.
8a-q	_	.	.
[8b-	Oh,	.	.
8b-]	_	.	.
8a-	_	.	.
8b-	_	.	.
8a-	_	.	.
=22	=22	=22	=22
4a-	way	1r	.
4g-	down	.	.
8e-	deep	.	.
8a-	in	.	.
4b-	_	.	.
=23	=23	=23	=23
4a-	side	1r	.
4g-	_	.	.
4r	.	.	.
8g-	I	.	.
8a-	know	.	.
=24	=24	=24	=24
4g-	_	1r	.
8g-	that	.	.
[8a-	it's	.	.
8a-]	_	.	.
8a-	all	.	.
8b-	_	.	.
8a-	_	.	.
=25	=25	=25	=25
16a-	wrong	1r	.
[8.g-	_	.	.
16g-]	_	.	.
16e-	_	.	.
8r	.	.	.
8r	.	.	.
8a-	Your	.	.
8b-	_	.	.
8a-	_	.	.
=26	=26	=26	=26
16a-	eyes	1r	.
8.g-	_	.	.
4g-	keep	.	.
8e-	temp-	.	.
8a-	-ting	.	.
8b-	_	.	.
8a-	_	.	.
=27	=27	=27	=27
8a-	me	1r	.
4.g-	_	.	.
8r	.	.	.
8a-	and	.	.
4b-	I	.	.
=28	=28	=28	=28
8a-	ne-	8d- f	ne-
4a-	-ver	4d- f	-ver
[8a-	was	[8d- [f	was
8a-]	_	8d-] f]	_
4b-	that	4e- g-	that
8cc-q	_	8e-q 8g-q	_
[8dd-	strong,	[8f [a-	strong,
=29	=29	=29	=29
4dd-]	_	4f] a-]	_
4b-	_	4e- [g-	_
4a-	_	[2d- g-_	_
[4b-	_	.	.
=30	=30	=30	=30
2b-]	_	2d-] g-]	_
8b-	De-	8d- g-	De-
4a-	-vil's	4c- e-	-vil's
8b-	got	8d- g-	got
=31	=31	=31	=31
8r	.	8r	.
8a-	me	8c- e-	me
8g-	_	8c- e-	_
[8g-	now,	[8B- [d-	now,
8g-]	_	8B-] d-]	_
8b-	whoa	8B- e-	whoa
8a-	_	8c- e-	_
8g-	_	8c- e-	_
=32	=32	=32	=32
4a-	whoa,	4c- e-	whoa,
4g-	_	4c- e-	_
4a-	gone	4c- e-	gone
4g-	and	4c- e-	and
=33	=33	=33	=33
8g-q	_	.	.
4a-	got	4c- f-	got
8g-	me	8c- e-	me
[8a-	now	[8c- [e-	now
8a-]	_	4c-] e-]	_
8g-	_	.	.
4e-	_	4r	.
=34	=34	=34	=34
8r	.	8r	.
8a-	I	8d- g-	I
4b-	can't	4d- g-	can't
4b-	fight	4d- g-	fight
4a-	him	4c- e-	him
=35	=35	=35	=35
4b-	a-	4d- g-	a-
8a-	-ny-	8c- e-	-ny-
[8g-	-how,	[8B- [d-	-how,
8g-]	_	8B-] d-]	_
8a-	I	8c- e-	I
4b-	_	4d- g-	_
=36	=36	=36	=36
4a-	think	4c e-	think
4a-	he's	4c e-	he's
4a-	gon-	4c e-	gon-
8g-	-na	8c e-	-na
8a-q	_	8cq 8e-q	_
[8b-	win	[8d- [f	win
=37	=37	=37	=37
8b-]	_	8d-] f]	_
8r	.	8r	.
4r	.	4r	.
2r	.	2r	.
=38	=38	=38	=38
8a-q	_	.	.
4b-	Hea-	4d- g-	Hea-
4a-	-ven's	4d- g-	-ven's
4b-	just	4d- g-	just
4a-	a	4c- e-	a
=39	=39	=39	=39
8a-q	_	.	.
4b-	sin	4d- g-	sin
8a-	a-	8c- e-	a-
[8g-	-way,	[8B- [d-	-way,
8g-]	_	8B-] d-]	_
8b-	whoa	8B- e-	whoa
8a-	_	8c- e-	_
8g-	_	8c- e-	_
=40	=40	=40	=40
4a-	whoa,	4c- e-	whoa,
4g-	_	4c- e-	_
4a-	just	4c- e-	just
4g-	a	4c- e-	a
=41	=41	=41	=41
8g-q	_	.	.
4a-	sin	4c- f-	sin
8g-	a-	8c- e-	a-
[8a-	-way,	[8c- [e-	-way
8a-]	_	4c-] e-]	_
8g-	_	.	.
4e-	_	4r	.
=42	=42	=42	=42
8b-	Hea-	8d- g-	Hea-
4b-	-ven	4d- g-	-ven
[8b-	help	[8d- [g-	help
8b-]	_	8d-] g-]	_
4.a-	me	4.c- e-	me
=43	=43	=43	=43
8b-	when	8d- g-	when
4a-	I	4c- e-	I
8g-	say	8B- d-	say
4r	.	4r	.
8r	.	8r	.
8b-	I	8d- g-	I
=44	=44	=44	=44
4a-	think	4d- f	think
4g-	I'm	4d- e-	I'm
4b-	gi-	4d- g-	gi-
8dd-	-vin'	8d- f	-vin'
8a-q	_	8fq	_
[8b-	in!	[8d- [g-	in!
=45	=45	=45	=45
8b-]	_	8d-] g-]	_
8a-	_	8c- e-	_
2.g-	_	2.B- d-	_
=46	=46	=46	=46
1r	.	1r	.
=47	=47	=47	=47
1r	.	1r	.
=48	=48	=48	=48
1r	.	1r	.
=49	=49	=49	=49
1r	.	1r	.
=50	=50	=50	=50
1r	.	1r	.
=51	=51	=51	=51
1r	.	1r	.
=52	=52	=52	=52
1r	.	1r	.
=53	=53	=53	=53
4r	.	1r	.
8r	.	.	.
8a-q	_	.	.
[8b-	Oh,	.	.
8b-]	_	.	.
8a-	_	.	.
8b-	_	.	.
8a-	_	.	.
=54	=54	=54	=54
8a-	way	1r	.
8g-	_	.	.
4g-	down	.	.
8e-	deep	.	.
8a-	in	.	.
4b-	_	.	.
=55	=55	=55	=55
4a-	side	1r	.
4g-	_	.	.
4r	.	.	.
8g-	I	.	.
8a-	know	.	.
=56	=56	=56	=56
4g-	_	1r	.
8g-	that	.	.
[8a-	it's	.	.
8a-]	_	.	.
8a-	all	.	.
8b-	_	.	.
8a-	_	.	.
=57	=57	=57	=57
16a-	wrong	1r	.
[8.g-	_	.	.
16g-]	_	.	.
16e-	_	.	.
8r	.	.	.
8r	.	.	.
8a-	Your	.	.
8b-	_	.	.
8a-	_	.	.
=58	=58	=58	=58
16a-	eyes	1r	.
8.g-	_	.	.
4g-	keep	.	.
8e-	temp-	.	.
8a-	-ting	.	.
8b-	_	.	.
8a-	_	.	.
=59	=59	=59	=59
8a-	me	1r	.
4.g-	_	.	.
8r	.	.	.
8a-	and	.	.
4b-	I	.	.
=60	=60	=60	=60
8a-	ne-	8d- f	ne-
4a-	-ver	4d- f	-ver
[8a-	was	[8d- [f	was
8a-]	_	8d-] f]	_
4b-	that	4e- g-	that
8cc-q	_	8e-q 8g-q	_
[8dd-	strong,	[8f [a-	strong,
=61	=61	=61	=61
4dd-]	_	4f] a-]	_
4b-	_	4e- [g-	_
4a-	_	[2d- g-_	_
[4b-	_	.	.
=62	=62	=62	=62
2b-]	_	2d-] g-]	_
8b-	De-	8d- g-	De-
4a-	-vil's	4c- e-	-vil's
8a-q	_	8c-q 8e-q	_
8b-	got	8d- g-	got
=63	=63	=63	=63
8r	.	8r	.
8a-	me	8c- e-	me
8g-	_	8c- e-	_
[8g-	now,	[8B- [d-	now,
8g-]	_	8B-] d-]	_
8b-	whoa	8B- e-	whoa
8a-	_	8c- e-	_
8g-	_	8c- e-	_
=64	=64	=64	=64
4a-	whoa,	4c- e-	whoa,
4g-	_	4c- e-	_
4a-	gone	4c- e-	gone
4g-	and	4c- e-	and
=65	=65	=65	=65
8g-q	_	.	.
4a-	got	4c- f-	got
8g-	me	8c- e-	me
[8a-	now	[8c- [e-	now
8a-]	_	4c-] e-]	_
8g-	_	.	.
4e-	_	4r	.
=66	=66	=66	=66
8r	.	8r	.
8a-	I	8d- g-	I
4b-	can't	4d- g-	can't
4b-	fight	4d- g-	fight
4a-	him	4c- e-	him
=67	=67	=67	=67
4b-	a-	4d- g-	a-
8a-	-ny-	8c- e-	-ny-
[8g-	-how,	[8B- [d-	-how,
8g-]	_	8B-] d-]	_
8a-	I	8c- e-	I
4b-	_	4d- g-	_
=68	=68	=68	=68
4a-	think	4c e-	think
4a-	he's	4c e-	he's
4a-	gon-	4c e-	gon-
8g-	-na	8c e-	-na
8a-q	_	8cq 8e-q	_
[8b-	win	[8d- [f	win
=69	=69	=69	=69
8b-]	_	8d-] f]	_
8r	.	8r	.
4r	.	4r	.
2r	.	2r	.
=70	=70	=70	=70
8a-q	_	.	.
4b-	Hea-	4d- g-	Hea-
4a-	-ven's	4d- g-	-ven's
4b-	just	4d- g-	just
4a-	a	4c- e-	a
=71	=71	=71	=71
8a-q	_	.	.
4b-	sin	4d- g-	sin
8a-	a-	8c- e-	a-
[8g-	-way,	[8B- [d-	-way,
8g-]	_	8B-] d-]	_
8b-	whoa	8B- e-	whoa
8a-	_	8c- e-	_
8g-	_	8c- e-	_
=72	=72	=72	=72
4a-	whoa,	4c- e-	whoa,
4g-	_	4c- e-	_
4a-	just	4c- e-	just
4g-	a	4c- e-	a
=73	=73	=73	=73
8g-q	_	.	.
4a-	sin	4c- f-	sin
8g-	a-	8c- e-	a-
[8a-	-way,	[8c- [e-	-way
8a-]	_	4c-] e-]	_
8g-	_	.	.
4e-	_	4r	.
=74	=74	=74	=74
8b-	Hea-	8d- g-	Hea-
4b-	-ven	4d- g-	-ven
[8b-	help	[8d- [g-	help
8b-]	_	8d-] g-]	_
4.a-	me	4.c- e-	me
=75	=75	=75	=75
8b-	when	8d- g-	when
4a-	I	4c- e-	I
8g-	say	8B- d-	say
4r	.	4r	.
8r	.	8r	.
8b-	I	8d- g-	I
=76	=76	=76	=76
4a-	think	4d- f	think
4g-	I'm	4d- e-	I'm
4b-	gi-	4d- g-	gi-
8dd-	-vin'	8d- f	-vin'
8a-q	_	8fq	_
[8b-	in!	[8d- [g-	in!
=77	=77	=77	=77
8b-]	_	8d-] g-]	_
8a-	_	8c- e-	_
2.g-	_	2.B- d-	_
=78	=78	=78	=78
*G:	*	*G:	*
1r	.	1r	.
=79	=79	=79	=79
8aq	_	.	.
4b	Hea-	4d g	Hea-
4a	-ven's	4d g	-ven's
4b	just	4d g	just
4a	a	4c e	a
=80	=80	=80	=80
8aq	_	.	.
4b	sin	4d g	sin
8a	a-	8c e	a-
[8g	-way,	[8B [d	-way,
8g]	_	8B] d]	_
8b	whoa	8B e	whoa
8a	_	8c e	_
8g	_	8c e	_
=81	=81	=81	=81
4a	whoa,	4c e	whoa,
4g	_	4c e	_
4a	just	4c e	just
4g	a	4c e	a
=82	=82	=82	=82
8gq	_	.	.
4a	sin	4c f	sin
8g	a-	8c e	a-
[8a	-way,	[8c [e	-way
8a]	_	4c] e]	_
8g	_	.	.
4e	_	4r	.
=83	=83	=83	=83
8r	.	8r	.
8a	I	8d g	I
4b	can't	4d g	can't
4b	wait	4d g	wait
4a	a-	4c e	a-
=84	=84	=84	=84
4b	-no-	4d g	-no-
8a	-ther	8c e	-ther
[8g	day,	[8B [d	day,
8g]	_	8B] d]	_
8a	I	8c e	I
4b	_	4d g	_
=85	=85	=85	=85
4a	think	4c# e	think
4a	I'm	4c# e	I'm
4a	gi-	4c# e	gi-
8g	-vin'	8c# e	-vin'
8aq	_	8c#q 8eq	_
[8b	in	[8d [f#	in
=86	=86	=86	=86
8b]	_	8d] f#]	_
8r	.	8r	.
4r	.	4r	.
2r	.	2r	.
=87	=87	=87	=87
8aq	_	.	.
8b	How	8d g	How
4a	I'd	4d g	I'd
4b	love	4d g	love
8a	to	8c e	to
[8b	hold	[8d [g	hold
=88	=88	=88	=88
4b]	_	4d] g]	_
8a	you	8c e	you
[8g	tight,	[8B [d	tight,
8g]	_	8B] d]	_
8b	whoa	8B e	whoa
8a	_	8c e	_
8g	_	8c e	_
=89	=89	=89	=89
4a	whoa,	4c e	whoa,
4g	_	4c e	_
4a	be	4c e	be
8g	with	8c e	with
[8a	you	[8c [f	you
=90	=90	=90	=90
4a]	_	4c] f]	_
8g	to-	8c e	to-
[8a	-night	[8c [e	-night
8a]	_	4c] e]	_
8g	_	.	.
4e	_	4r	.
*-	*-	*-	*-
!!!ENC: Nathaniel Condit-Schultz